X: 4804
T: Back To Your Roots
C: Muriel A Johnstone
R: jig
B: RSCDS 48-4
Z: 2015 by John Chambers <jc:trillian.mit.edu>
N: Tune for the dance Monica's Way
M: 6/8
L: 1/8
K: D
[|\
"Bm"fdB FBd | "Bm"fed "E7"fed | "A"ecA EAc | "A"efa "F#7"fec |\
"Bm"fdB FBd | "Bm"fed "E7"fed | "A"eac "F#7"fec | "Bm"cBB B3 :|
"Bm"BAF B2B | "D"BAF def | "Em"edB B2d | "A"cBA ABc |\
"Bm"BAF B2B | "G"BAF "D"def | "A"eac "F#7"fec | "Bm"cBB B3 ||
"Bm"BAF "G"B2B | "D"BAF def | "A"efa fed | "F#m"cBA "F#7"fec |\
"Bm"BAF "G"Bde | "D"fed fed | "A"eac "F#7"fec | "Bm"cBB B3 |]
